X: 131	% 32
T: Chamois O'Brien
T: (Pioneers Favorite Waltz)
N: "Shamus O'Brien" is pencilled in at the top.
S: Viola Ruth "Pioneer Western Folk Tunes" 1948 p.13 #1
R: waltz
Z: 2019 John Chambers <jc:trillian.mit.edu>
M: 3/4
L: 1/8
K: G
V: 1 name="32"
Md-Md ||\
(e2d2B2) | (G2A2B2) | (E2G2E2) | D4MD-MD |\
G3(FGB) | (e2d2B2) | A6- | A4Md-Md ||\
(e2d2B2) | (G2A2B2) | (E2F2G2) | e3(fge) |
(d2B2G2) | (A2E2F2) | G6- | G4Md-Md |:\
e3(def) | (g2f2e2) | f3(efd) | B4Md-Md |\
e3(def) | (g2f2e2) | f6- | f4(ge) ||
(d2B2A2) | (G2A2B2) | (E2F2G2) | e3(fge) |\
(d2B2G2) | (A2E2F2) |[1 G6- | G4Md-Md :|\
["Final Ending"G6- | G2B2d2 | g6- | g4 |]
